X: 7
T:Diddanwch Gruffydd ap Cynan
T:The Delight of Gruffydd ap Cynan
M:C
L:1/8
Q:180
C:Trad
S:51 Welsh Airs
R:?
A:Wales
H:From a facsimile c.1840: A Choice Collection of Fifty-One Welsh Airs
H:adapted for The Harp, Piano-Forte, Harpsichord,
H:Violin, or Flute by Edward Jones
H:"Harper to His Late Majesty King George IV, when
H:Prince of Wales".
Z:brian_martin12345@yahoo.com
K:Dm
"Affetuoso"
F2E2D2d^c|d2A>G F4|ABcA B4|EFGE ^C4|!
F2E2{FE}D2d2|defd ^c2=Bc|d2A2A2_B2|(A2G2)A4:||!
d3e ^c2A2|d2e2f4|c2cdc2B2|A2A/B/c {FGFG}F4|!
G^FGAG4|defd^c2=Bc|d2A2B/A/G/A/ c/B/A/G/|F2E2{DE}{D}D4:||
